X:1
T:The Guiding Hand
T:Silas Jones Vail
T:The Guiding Hand
T:Public Domain
T:Public Domain
C:Silas Jones Vail
Z:Public Domain
%%score ( 1 2 ) ( 3 4 )
L:1/8
M:4/4
K:D
V:1 treble 
V:2 treble 
V:3 bass 
V:4 bass 
V:1
 [FA]2 | [FA]3 [DF] [FA]2 [Fd]2 | [Gd]3 [GB] [GB]2 [Gd]2 | [Fd]3 [FA] [FA]2 [DF]2 | %4
w: 1.~Through|each per- plex- ing|care and strife, That|marks the check- ered|
w: 2.~Though|tri- als great be-|fore me rise, Though|clouds of sor- row|
w: 3.~He|lead- eth me, O|joy di- vine! The|glo- ry His, the|
w: 4.~With|Him, my soul’s e-|ter- nal Guide, What|can I wish or|
 (BA) [DF]2 [CE]2 [EA]2 | [FA]3 [DF] [FA]2 [Fd]2 | [Gd]3 [GB] [GB]2 [Gd]2 | %7
w: path * of life, My|ior’s guid- ing hand|I see, And know|
w: veil * my skies, Un-|the com- ing storm|I see, For God|
w: cross * be mine, Since|who suf- fered on|the tree In ten-|
w: want * be- side? In|or death my song|shall be, My lov-|
 [Fd]2 ([FA]>[GB]) [FA]2 (DE) | [DF]2 [CE]2 D2 ||"^Refrain" [Fd]2 | [Fd]2 [Ec]2 [Ec]2 [Gd]2 | %11
w: that still * He lead- *|eth me. *|||
w: my Sav- * ior lead- *|eth me. He|eth|me, he lead- eth|
w: der mer- * cy lead- *|eth me. *|||
w: ing Sav- * ior lead- *|eth me. *|||
 [Ge]2 ([Fd][Ec]) [Fd]2 [FA]2 | [GB]2 [FA]2 [Fd]2 [DF]2 | [DF]2 [CE]2 [CE]2 (EG) | %14
w: |||
w: me, Let * this my|theme of rap- ture|be! He lead- eth *|
w: |||
w: |||
 [FA]3 [DF] [FA]2 [Fd]2 | [Gd]3 [GB] [GB]2 [Gd]2 | [Fd]2 ([FA]>[GB]) [FA]2 (DE) | [DF]2 [CE]2 D2 |] %18
w: ||||
w: He lead- eth me,|My Sav- ior’s guid-|ing hand * I see. *||
w: ||||
w: ||||
V:2
 x2 | x8 | x8 | x8 | D2 x6 | x8 | x8 | x8 | x4 D2 || x2 | x8 | x8 | x8 | x6 A2 | x8 | x8 | x8 | %17
w: ||||Sav-|||||||||||||
w: ||||moved||||lead-|||||me,||||
w: ||||He|||||||||||||
w: ||||life|||||||||||||
 x4 D2 |] %18
w: |
w: |
w: |
w: |
V:3
 [D,D]2 | [D,D]3 [D,A,] [D,A,]2 [D,A,]2 | [G,B,]3 [G,D] [G,D]2 [G,B,]2 | %3
 [D,A,]3 [D,D] [D,D]2 [D,A,]2 | (G,F,) [D,A,]2 [A,,A,]2 [A,,C]2 | [D,D]3 [D,A,] [D,A,]2 [D,A,]2 | %6
 [G,B,]3 [G,D] [G,D]2 [G,B,]2 | [D,A,]2 [D,D]2 [D,D]2 ([F,A,][G,B,]) | A,2 [A,,G,]2 [D,F,]2 || %9
 (D,F,) | A,2 A,2 A,2 A,2 | [D,A,]2 [D,A,]2 [D,A,]2 [D,D]2 | [D,D]2 [D,D]2 [D,A,]2 (D,F,) | %13
 A,2 [A,,A,]2 [A,,A,]2 [A,,C]2 | [D,D]3 [D,A,] [D,A,]2 [D,A,]2 | [G,B,]3 [G,D] [G,D]2 [G,B,]2 | %16
 [D,A,]2 [D,D]2 [D,D]2 ([F,A,][G,B,]) | A,2 [A,,G,]2 [D,F,]2 |] %18
V:4
 x2 | x8 | x8 | x8 | D,2 x6 | x8 | x8 | x8 | A,2 x4 || A,2 | x8 | x8 | x6 A,2 | x8 | x8 | x8 | x8 | %17
 A,2 x4 |] %18

